X:5
T:5. Fly, Love, Aloft
C:John Wilbye
%#Noindex
%%transpose 7
%%measurenb 0
%%score [1 2 3]
L:1/4
M:4/4
I:linebreak $
K:F
V:1 clef=treble+8 nm="Soprano"
%%MIDI program 73
V:2 treble nm="Alto" 
%%MIDI program 73
V:3 bass nm="Bass" octave=-1
%%MIDI program 73
V:1
 F/E/F/G/ A F | c4 | z c c A |$ G F F E | F2 z2 | c/=B/c/d/ e c | c c f2 |$ e/d/e/f/ g f | %8
w: Fly, ___ love, a-|loft|to heav'n, and|look out for- -|tune,|fly, ___ love, a-|loft to heav'n,|fly,___ love, a-|
 d3/2 e/ f f | e f d2 | c2 c2 |$ c c c c | d3/2 c/ B A | G2 G c | d e d d | e2 f d- |$ d c c2 | %17
w: loft to heav'n, and|look out for-|tune: Then|sweet- ly, sweet- ly,|sweet- ly her im-|por- tune, That|I from my Ca-|lis- to, best|_ be lov-|
 A2 z2 | z f f f | d3/2 c/ B _e |$ d c c =B | c4 | z c c c | A3/2 G/ F2 |$ z B B3/2 A/ | G F E F | %26
w: ed,|As you and|she sit down, be|ne- ver mov - |ed,|as you and|she sit down,|as you and|she sit down, he|
 G A G2 | A2 F2 | c2 z c |$ c3/2 B/ A c | B A G2 | F4 | z2 c2 |$ c3/2 B/ A c | B A G2 | F2 z c- | %36
w: ne- ver mov-|ed: And,|love, to|Ca- ri- mel see|you com- mend|me!|to|Ca- ri- mel see|you com- mend|me, see|
 c/c/ B c2 |$ A2 F F/G/ | A3/2 B/ c2 |$ c c/d/ e3/2 f/ | g3 g | f e d2 |$ e2 z2 | z2 z f- | %44
w: _ you com- mend|me, For- tune, for|his sweet sake,|for- tune, for his sweet|sake, may|chance be- friend|me,|for-|
 f/c/ e d d |$ c2 F B- | B A G2 | A2 F2 | c2 z c | c3/2 B/ A c |$ B A G2 | F4 | z2 c2 | %53
w: - tune, for his sweet|sake, may chance|_ be- friend|me. And,|love, to|Ca- ri- mel see|you com- mend|me!|to|
 c3/2 B/ A c |$ B A G2 | F2 z c- | c/c/ B c2 |$ A2 F F/G/ | A3/2 B/ c2 |$ c c/d/ e3/2 f/ | g3 g | %61
w: Ca- ri- mel see|you com- mend|me, see|_ you com- mend|me, For- tune, for|his sweet sake,|for- tune, for his sweet|sake, may|
 f e d2 |$ e2 z2 | z z2 f- | f/c/ e d d |$ c2 F B- | B A G2 | A4- |$ A4 |] %69
w: chance be- friend|me,|for-|- tune, for his sweet|sake, may chance|_ be- friend|me.|_
V:2
 z4 | C/=B,/C/D/ E C | F2 z c |$ c A G G | A2 B F | G A G G | F/E/F/G/ A F |$ c3 A | B2 A2 | %9
w: |Fly,___ love, a-|loft to|heav'n, and look out|for- tune, and|look out for- tune,|fly,___ love, a-|loft to|heav'n, and|
 G A G2 | G3 A |$ G A G A | B3/2 A/ G F | E2 E G | G G G G | G2 c B- |$ B A G2 | F c c c | %18
w: look out for-|tune: Then|sweet- ly, sweet- ly,|sweet- ly her im-|por- tune, That|I from my Ca-|lis- to, best|_ be lov-|ed, As you and|
 A3/2 G/ F2 | z z2 G |$ G _E D2 | E G G G | E3/2 D/ C2 | z F F F |$ D3/2 C/ B,2 | C c2 =B | c4 | %27
w: she sit down,|be|ne- ver mov-|ed, as you and|she sit down,|as you and|she sit down,|be ne- ver|mov-|
 c4 | z2 G2 |$ A2 z2 | z c c3/2 B/ | A c B A | G F3/2 F/ E |$ F4 | z c c3/2 B/ | A c B A | %36
w: ed:|And,|love,|to Ca- ri-|mel see you com-|mend me, com- mend|me!|to Ca- ri-|mel see you com-|
 G F F E |$ F F/G/ A3/2 B/ | c2 C C/D/ |$ E3/2 F/ G2- | G c =B G | A/B/ c2 =B |$ c c3/2 G/ A | %43
w: mend, com- mend me,|For- tune, for his sweet|sake, for- tune, for|his sweet sake,|_ may chance be|friend___|me, For- tune, for|
 G G A B | G3/2 A/ B G |$ A F D G- | G/F/ F2 E | F4 | z2 G2 | A2 z2 |$ z c c3/2 B/ | A c B A | %52
w: his sweet sake, for-|tune, for his sweet|sake, may chance be-|-- friend _|me.|And,|love,|to Ca- ri-|mel see you com-|
 G F3/2 F/ E | F4 |$ z c c3/2 B/ | A c B A | G F F E |$ F F/G/ A3/2 B/ | c2 C C/D/ |$ E3/2 F/ G2- | %60
w: mend me, com- mend|me!|to Ca- ri-|mel see you com-|mend, com- mend me,|For- tune, for his sweet|sake, for- tune, for|his sweet sake,|
 G c =B G | A/B/ c2 =B |$ c c3/2 G/ A | G G A B | G3/2 A/ B G |$ A F D G- | G/F/ F2 E | F4- |$ F4 |]%69
w: _ may chance be-|friend___|me, For- tune, for|his sweet sake, for-|tune, for his sweet|sake, may chance be-|-- friend_|me.|_|
V:3
 z4 | z4 | F,/E,/F,/G,/ A, F, |$ C3 C | F3/2 E/ D D | C4 | F,2 z2 |$ C/=B,/C/D/ E F | %8
w: ||Fly,___ love, a-|loft to|heav'n, and look out|for-|tune,|fly,___ love, a-|
 G G, A,3/2 B,/ | C F, G,2 | C3 F |$ E F C F | B,3/2 C/ _E F | C2 C C | =B, C G, G, | C2 A, B,- |$ %16
w: loft to heav'n, and|look out for-|tune: Then|sweet- ly, sweet- ly,|sweet- ly her im-|por- tune, That|I from my Ca-|lis- to, best|
 B, F, C2 | F,2 z F | F F D3/2 C/ | B, A, B, C |$ G,4 | C2 z C | C C A,3/2 G,/ | F,2 z B, |$ %24
w: _ be lov-|ed, As|you and she sit|down, be ne- ver|mov-|ed, As|you and she sit|down, as|
 B, B, G,3/2 F,/ | E, F, C D | C4 | F,4 | z2 C2 |$ F4 | z2 C2 | F3/2 E/ D F | E D C2 |$ F,4 | %34
w: you and she sit|down, be ne- ver|mov-|ed:|And,|love,|to|Ca- ri- mel see|you com- mend|me,|
 z2 C2 | F3/2 E/ D F | E D C2 |$ F,4 | F, F,/G,/ A,3/2 B,/ |$ C2 C C/D/ | E>F G E | D C G2 |$ %42
w: to|Ca- ri- mel see|you com- mend|me,|For- tune, for his sweet|sake, for- tune, for|his sweet sake, my|chance be- friend|
 C2 z F- | F/C/ E D D | C2 B,2 |$ A,2 B,2 | C4 | F,4 | z2 C2 | F4 |$ z2 C2 | F3/2 E/ D F | E D C2 | %53
w: me, for-|- tune, for his sweet|sake, may|chance be-|friend|me.|And,|love,|to|Ca- ri- mel see|you com- mend|
 F,4 |$ z2 C2 | F3/2 E/ D F | E D C2 |$ F,4 | F, F,/G,/ A,3/2 B,/ |$ C2 C C/D/ | E3/2 F/ G E | %61
w: me,|to|Ca- ri- mel see|you com- mend|me,|For- tune, for his sweet|sake, for- tune, for|his sweet sake, my|
 D C G2 |$ C2 z F- | F/C/ E D D | C2 B,2 |$ A,2 B,2 | C4 | F,4- |$ F,4|] %69
w: chance be- friend|me, for-|- tune, for his sweet|sake, may|chance be-|friend|me.|_|

